assets/6a9f7ad51155263af731c6cf4541337e.svg

<?xml version="1.0" encoding="UTF-8" standalone="no"?>
<!-- Uploaded to: SVG Repo, www.svgrepo.com, Generator: SVG Repo Mixer Tools -->

<svg
   width="127.63451"
   height="135.96204"
   viewBox="0 0 10.210761 10.876963"
   version="1.1"
   id="svg340"
   sodipodi:docname="asteroid.svg"
   inkscape:version="1.2.2 (732a01da63, 2022-12-09)"
   xmlns:inkscape="http://www.inkscape.org/namespaces/inkscape"
   xmlns:sodipodi="http://sodipodi.sourceforge.net/DTD/sodipodi-0.dtd"
   xmlns="http://www.w3.org/2000/svg"
   xmlns:svg="http://www.w3.org/2000/svg">
  <defs
     id="defs344" />
  <sodipodi:namedview
     id="namedview342"
     pagecolor="#ffffff"
     bordercolor="#000000"
     borderopacity="0.25"
     inkscape:showpageshadow="2"
     inkscape:pageopacity="0.0"
     inkscape:pagecheckerboard="0"
     inkscape:deskcolor="#d1d1d1"
     showgrid="false"
     inkscape:zoom="1.04625"
     inkscape:cx="316.36798"
     inkscape:cy="338.35125"
     inkscape:window-width="1920"
     inkscape:window-height="1017"
     inkscape:window-x="1912"
     inkscape:window-y="-8"
     inkscape:window-maximized="1"
     inkscape:current-layer="svg340" />
  <path
     d="m 9.014033,6.5331196 c -0.175089,0 -0.307914,0.201251 -0.35219,0.201251 -0.08251,0.01811 -0.191188,0 -0.317976,0 a 0.65205326,0.65205326 0 0 0 -0.527278,0.183138 c -0.185151,0.201251 -0.277726,1.08273 -0.02616,1.292031 0.251564,0.209301 0.654066,0.116726 0.805004,0.09258 0.150939,-0.02415 0.201251,0.04226 0.37634,0.05031 a 0.8593418,0.8593418 0 0 0 0.730541,-0.402502 c 0.185151,-0.319989 0.02415,-0.87343 -0.06641,-1.082731 A 0.77884139,0.77884139 0 0 0 9.014033,6.5331196 Z M 2.398912,2.8602883 c 0.402502,0.1267881 1.022355,-0.04025 1.382594,-0.066413 0.36024,-0.026163 0.955943,0.1086756 1.233669,0.092575 0.277726,-0.0161 0.646016,-0.3864019 0.762741,-1.006255 C 5.894642,1.2603428 5.677291,0.47143879 5.0997,0.27018779 4.52211,0.06893679 3.823769,0.39496349 3.505793,0.51168899 3.1878159,0.62841459 2.8295891,0.60426449 2.3324992,0.84777819 1.8354092,1.0912919 1.8454717,1.3609683 1.8374217,1.6527822 1.8293716,1.9445962 2.00446,2.7355127 2.398912,2.8602883 Z m 3.672831,0.311939 c 0.08452,0.02415 1.911884,-2.0467227 1.936035,-2.1131355 0.02415,-0.066413 -0.140876,-0.21936361 -0.225402,-0.21936361 -0.08453,0 -1.982322,1.96622231 -1.962197,2.06282281 a 0.68626593,0.68626593 0 0 0 0.251564,0.2696763 z m 3.169703,-1.408757 c 0.06641,0.0161 0.519228,-0.5715529 0.54539,-0.6460157 0.02616,-0.074463 -0.126788,-0.092575 -0.201251,-0.1006255 -0.07446,-0.00805 -0.603753,0.50514 -0.56149,0.5534402 a 0.73456617,0.73456617 0 0 0 0.217351,0.193201 z M 1.3081315,3.6834049 c 0.068425,-0.1187381 -0.3682893,0 -0.4850149,0.050313 A 1.3745444,1.3745444 0 0 0 0.2354637,4.4038835 1.7689963,1.7689963 0 0 0 0,5.2330376 0.39042695,0.39042695 0 0 0 0.3602393,5.2914006 C 0.4447647,5.2491376 0.4206146,4.9553113 0.5453902,4.5447592 0.6701659,4.1342072 1.2417187,3.8001305 1.3081315,3.6834049 Z M 6.01338,0.61432709 a 2.0125101,2.0125101 0 0 0 0.476965,-0.4447648 c 0.01811,-0.050313 -0.02415,-0.1348381 -0.124776,-0.1670383 -0.100625,-0.0322 -0.56149,0.2515638 -0.54539,0.402502 0.008,0.074463 0.116726,0.2173511 0.193201,0.2093011 z M 9.996137,2.3491107 C 9.635898,1.8721458 8.863094,2.1317596 8.712156,2.1740224 8.561218,2.2162851 8.148653,2.1337721 7.957465,2.2826979 7.353712,2.7516127 7.50465,3.5827794 7.530813,3.7920804 a 0.50916505,0.50916505 0 0 0 0.436714,0.4025021 c 0.183139,0.0161 0.728529,0.2596137 1.022355,0.3260266 0.293827,0.066413 0.805004,0.042263 1.006255,-0.2757139 0.201251,-0.3179766 0.36024,-1.4168071 0,-1.8957845 z M 8.645743,5.2753006 c 0.02616,-0.08251 -0.0161,-0.06641 -0.09258,-0.08251 -0.07648,-0.0161 -0.603753,0.438727 -0.670166,0.519227 -0.02616,0.03421 0.150938,0.235464 0.217351,0.235464 0.06641,0 0.52124,-0.587653 0.54539,-0.672178 z M 4.9065,10.55814 C 4.85619,10.54204 4.705249,10.6004 4.117596,10.59235 A 0.98210491,0.98210491 0 0 1 3.405167,10.356887 c -0.066413,0 -0.201251,0.126788 -0.2515637,0.201251 -0.050313,0.07446 0.1247756,0.110688 0.2254011,0.169051 a 1.8957845,1.8957845 0 0 0 0.8050036,0.142888 1.6945335,1.6945335 0 0 0 0.772804,-0.110688 c 0,-0.0322 0,-0.183139 -0.05031,-0.201251 z M 6.448082,4.3958335 C 5.971117,4.110057 5.661191,3.5908294 5.023225,3.5405167 4.385259,3.4902039 3.958607,3.8544683 3.413217,3.9269186 2.6424257,4.0275441 1.9702473,4.1281696 1.4349197,4.5548218 a 2.2862114,2.2862114 0 0 0 -0.8050041,1.6361708 1.006255,1.006255 0 0 0 0.3360892,0.895567 c 0.1589883,0.150938 -0.026163,0.452815 -0.050313,0.704378 a 2.292249,2.292249 0 0 0 0.7868914,1.585858 c 0.5796029,0.436715 0.8975795,0.402502 1.4087571,0.402502 0.5111777,0 0.7204787,0.108676 1.5093827,0.2515644 0.788904,0.142888 1.006255,0.03421 1.585858,-0.4950774 C 6.786184,9.0064936 6.516508,8.4208536 6.56682,8.3121776 6.61713,8.2035026 6.876747,8.0686646 7.112211,7.8010006 7.347674,7.5333366 7.514713,6.6599076 7.446287,6.0561546 7.377862,5.4524016 6.91901,4.6816099 6.448082,4.3958335 Z"
     fill="#1d1d1b"
     id="path278"
     style="stroke-width:0.201251" />
  <path
     d="M 2.9261896,0.91620359 A 0.73054115,0.73054115 0 0 0 3.572205,1.2683928 0.71846609,0.71846609 0 0 0 4.194071,0.78941539 c 0.05836,-0.1428882 0.0322,-0.2515637 0.05836,-0.2515637 0.02616,0 0.57759,-0.1831384 0.863367,0.1851509 A 1.4469947,1.4469947 0 0 1 5.359311,1.9808214 C 5.232526,2.3169106 4.93065,2.5684743 4.755561,2.5684743 A 7.5207501,7.5207501 0 0 0 3.429317,2.4839489 C 2.8678268,2.5342617 2.7752514,2.5765244 2.6665758,2.5262116 A 1.298069,1.298069 0 0 1 2.2640738,1.8298831 0.899592,0.899592 0 0 1 2.4492247,1.1094045 2.5880879,2.5880879 0 0 1 2.9261896,0.91620359 Z"
     fill="#e6e4da"
     id="path280"
     style="stroke-width:0.201251" />
  <path
     d="M 3.1878159,0.83972819 C 3.1777534,0.79947799 3.924395,0.58816439 3.950557,0.63847719 A 0.47495237,0.47495237 0 0 1 3.630568,1.0590918 0.38640193,0.38640193 0 0 1 3.1878159,0.83972819 Z"
     fill="#e6e4da"
     id="path282"
     style="stroke-width:0.201251" />
  <path
     d="m 4.453685,0.75721529 c -0.01409,-0.044275 0.124775,-0.068425 0.167038,-0.034213 0.04226,0.034213 0.251564,0.52727761 0.201251,0.56954031 -0.05031,0.042263 -0.150938,0.084525 -0.183138,0.026163 C 4.606636,1.2603426 4.461735,0.78136539 4.453685,0.75721529 Z"
     fill="#1d1d1b"
     id="path284"
     style="stroke-width:0.201251" />
  <path
     d="m 4.848137,0.78136539 c -0.01208,-0.0322 0.09056,-0.034213 0.150938,0.026163 0.06037,0.060375 0.175088,0.33407671 0.124776,0.36828941 -0.05031,0.034213 -0.08453,0.058363 -0.124776,0.02415 A 2.193636,2.193636 0 0 1 4.848137,0.78136539 Z"
     fill="#1d1d1b"
     id="path286"
     style="stroke-width:0.201251" />
  <path
     d="M 2.8678268,1.7212076 C 3.0952405,1.5903944 3.497742,1.6366826 3.497742,2.0130215 c 0,0.3763394 -0.5614898,0.4367147 -0.704378,0.2857765 a 0.35218926,0.35218926 0 0 1 0.074463,-0.5775904 z"
     fill="#1d1d1b"
     id="path288"
     style="stroke-width:0.201251" />
  <path
     d="m 3.0107151,1.8640958 c 0.0966,-0.058363 0.2857764,0.0161 0.2857764,0.1408757 0,0.1247756 -0.201251,0.1690509 -0.2857764,0.1348382 a 0.15697578,0.15697578 0 0 1 0,-0.2757139 z"
     fill="#ffffff"
     id="path290"
     style="stroke-width:0.201251" />
  <path
     d="m 4.302747,1.6205821 c 0.251563,-0.1569758 0.786891,0 0.728528,0.3602393 C 4.972915,2.3410607 4.57846,2.4074735 4.361109,2.3833234 4.143758,2.3591734 3.630568,2.0391842 4.302749,1.6205821 Z"
     fill="#1d1d1b"
     id="path292"
     style="stroke-width:0.201251" />
  <path
     d="m 4.403372,1.7634703 c 0.08855,-0.044275 0.402502,-0.042263 0.402502,0.1750884 0,0.2173511 -0.285776,0.3018765 -0.468915,0.2515637 C 4.153821,2.1398094 4.159858,1.8801959 4.403369,1.7634703 Z"
     fill="#ffffff"
     id="path294"
     style="stroke-width:0.201251" />
  <path
     d="m 8.176828,2.5765244 c 0.07044,-0.068425 0.309927,-0.084525 0.326027,-0.034213 0.0161,0.050313 0.05836,0.402502 0.293826,0.5373402 a 0.53532768,0.53532768 0 0 0 0.519228,0.074463 C 9.458797,3.1038016 9.559423,3.0293389 9.543323,2.9951263 9.527223,2.9609133 9.476913,2.8602881 9.442697,2.8602881 c -0.03421,0 -0.336089,0.2193636 -0.53734,0.050313 C 8.704106,2.7415503 8.780581,2.5080991 8.873157,2.475899 8.965737,2.443699 9.535273,2.3571609 9.678161,2.550362 9.821049,2.743563 9.802937,3.9591191 9.720421,3.9007563 9.637911,3.8423933 9.54332,3.5646671 9.493007,3.5646671 c -0.05031,0 -0.158988,0.042263 -0.134838,0.1006255 0.02415,0.058363 0.277726,0.3441392 0.227413,0.402502 C 9.535272,4.1261576 9.442694,4.1945828 9.400431,4.1603706 9.358171,4.1261576 9.267606,3.7156059 9.18308,3.7236559 9.09855,3.7317059 8.981829,3.7739689 9.016042,3.8242814 9.050252,3.8745944 9.148868,4.1181079 9.098552,4.1261579 9.048242,4.1342079 8.6719,4.0094323 8.494799,3.9933322 8.317698,3.9772322 8.058084,4.0174822 7.967521,3.7739686 7.876961,3.5304549 7.874941,2.8703516 8.176822,2.5765252 Z"
     fill="#e6e4da"
     id="path296"
     style="stroke-width:0.201251" />
  <path
     d="m 8.41028,3.2728528 a 0.36627683,0.36627683 0 0 1 0.470927,0.283764 c 0,0.201251 -0.360239,0.3602393 -0.55344,0.2193636 C 8.134566,3.6351047 8.100353,3.3976285 8.410277,3.2728528 Z"
     fill="#1d1d1b"
     id="path298"
     style="stroke-width:0.201251" />
  <path
     d="m 8.49078,3.4539787 a 0.1207506,0.1207506 0 0 1 0.154963,0.092576 c 0,0.070438 -0.118738,0.1187381 -0.183138,0.07245 -0.0644,-0.046288 -0.07446,-0.1247756 0.02818,-0.1650259 z"
     fill="#ffffff"
     id="path300"
     style="stroke-width:0.201251" />
  <path
     d="m 8.04199,7.0704596 c 0.02818,-0.03421 0.185151,-0.07446 0.177101,-0.03421 -0.008,0.04025 -0.118738,0.227414 0.100626,0.319989 a 0.70840354,0.70840354 0 0 1 0.283764,0.183139 c 0,0 0.04226,0.428664 -0.02415,0.428664 -0.06641,0 -0.118738,0.0161 -0.126788,-0.02616 -0.0081,-0.04226 0,-0.301877 -0.04226,-0.309927 -0.04226,-0.008 -0.140876,-0.05031 -0.150939,0 -0.01006,0.05031 0.02616,0.378352 -0.0161,0.352189 -0.04226,-0.02616 -0.100625,0.02616 -0.175088,-0.09258 -0.07446,-0.118738 -0.100626,-0.728529 -0.02616,-0.821104 z"
     fill="#e6e4da"
     id="path302"
     style="stroke-width:0.201251" />
  <path
     d="m 9.132771,6.9617836 c 0.02415,-0.0161 0.108675,-0.05031 0.150938,-0.0161 a 0.80500402,0.80500402 0 0 1 0.132826,0.56954 c -0.0322,0.301877 -0.07446,0.36829 -0.132826,0.386402 -0.05836,0.01811 -0.05031,0.05031 -0.06037,0.0161 -0.01006,-0.03421 0,-0.293826 -0.05031,-0.301876 -0.05031,-0.0081 -0.158988,0 -0.167038,0.02415 -0.0081,0.02415 0.04226,0.362252 -0.02415,0.352189 -0.06641,-0.01006 -0.1771,0 -0.185151,-0.05031 a 1.5637203,1.5637203 0 0 1 -0.0161,-0.402502 c 0.02415,0 0.309927,-0.01811 0.36829,-0.201251 a 0.62790314,0.62790314 0 0 0 -0.0161,-0.37634 z"
     fill="#e6e4da"
     id="path304"
     style="stroke-width:0.201251" />
  <path
     d="m 8.57933,6.9617836 c 0.277727,-0.03421 0.402502,0.150938 0.37634,0.267664 -0.02616,0.116726 -0.175089,0.201251 -0.37634,0.08453 -0.201251,-0.116725 -0.209301,-0.328039 0,-0.352189 z"
     fill="#ffffff"
     id="path306"
     style="stroke-width:0.201251" />
  <path
     d="M 3.3468042,4.2267826 C 3.638618,4.1925699 3.974707,4.0255316 4.453685,3.9752189 a 1.6744084,1.6744084 0 0 1 1.308131,0.3360891 5.0634753,5.0634753 0 0 1 1.006255,0.9720426 1.8897469,1.8897469 0 0 1 0.283764,1.593908 c -0.158988,0.619853 -0.225401,0.746641 -0.426652,0.897579 -0.201251,0.150939 -0.444765,0.37634 -0.452815,0.460865 -0.008,0.08452 0.201251,0.730541 -0.201251,1.090781 -0.402502,0.360239 -0.704378,0.476964 -0.913679,0.460864 -0.209301,-0.0161 -0.90563,-0.277726 -1.610008,-0.285776 -0.7043788,-0.008 -1.1330434,-0.04226 -1.45102,-0.283764 a 2.3425617,2.3425617 0 0 1 -0.6621158,-1.07468 c 0,-0.150939 -0.042263,-0.291814 0.0161,-0.317977 0.058363,-0.02616 0.6460157,-0.124776 0.8211041,-0.267664 0.1750883,-0.142888 0.1428882,-0.460865 0,-0.680228 C 2.0286101,6.6578946 1.9199346,6.4828066 1.6864834,6.4405436 1.4530323,6.3982806 1.1330432,6.6760076 1.1330432,6.6760076 A 0.75066625,0.75066625 0 0 1 1.0223551,6.1225666 C 1.0827304,5.8367906 1.2336687,5.1746746 1.6864834,4.7641228 2.1392982,4.3535707 2.8517268,4.2791079 3.3468042,4.2267826 Z"
     fill="#e6e4da"
     id="path308"
     style="stroke-width:0.201251" />
  <path
     d="m 2.1211856,4.7822354 c 0.05635,-0.038238 0.2193636,0.058363 0.1851509,0.1167256 a 3.1757409,3.1757409 0 0 0 -0.402502,0.5373406 c -0.074463,0.201251 -0.0322,0.317976 -0.1086755,0.352189 -0.076475,0.03421 -0.185151,0.124775 -0.201251,0 a 1.0746804,1.0746804 0 0 1 0.1428882,-0.52929 1.9159096,1.9159096 0 0 1 0.3843894,-0.4769652 z"
     fill="#1d1d1b"
     id="path310"
     style="stroke-width:0.201251" />
  <path
     d="M 4.427522,4.4038835 C 4.813924,4.303258 5.150013,4.5206091 5.367364,4.6554473 a 1.1833559,1.1833559 0 0 0 0.487028,0.2274136 c 0.175088,0.02415 0.301876,0.066413 0.334076,0.2012507 0.0322,0.134838 0,0.468915 -0.100625,0.511178 -0.100626,0.04226 -0.519228,0.05031 -0.720479,0.217351 C 5.166113,5.9796786 5.0997,6.1567796 4.821974,6.2151426 4.544248,6.2735026 4.252434,6.3238176 3.942507,6.0722546 3.632581,5.8206906 3.3387542,4.6896599 4.427522,4.4038835 Z"
     fill="#1d1d1b"
     id="path312"
     style="stroke-width:0.201251" />
  <path
     d="m 4.503998,4.6051345 a 1.1189556,1.1189556 0 0 1 0.662115,0.1670383 c 0.225401,0.1348382 0.175089,0.1610008 0.402502,0.2193636 0.227414,0.058363 0.37634,0.082513 0.402502,0.1750882 0.02616,0.09258 0.07446,0.259614 -0.03421,0.293827 -0.108676,0.03421 -0.503128,0.02616 -0.696329,0.158988 -0.193201,0.132826 -0.334076,0.460865 -0.754691,0.418602 A 0.6802284,0.6802284 0 0 1 3.900246,5.3940386 0.74261621,0.74261621 0 0 1 4.504,4.6051345 Z"
     fill="#ffffff"
     id="path314"
     style="stroke-width:0.201251" />
  <path
     d="m 5.828229,6.4405436 a 0.52325262,0.52325262 0 0 1 0.730541,0.654066 c -0.185151,0.51319 -0.730541,0.571553 -0.974055,0.285776 a 0.62991565,0.62991565 0 0 1 0.243514,-0.939842 z"
     fill="#1d1d1b"
     id="path316"
     style="stroke-width:0.201251" />
  <path
     d="m 5.900679,6.6236816 a 0.33206416,0.33206416 0 0 1 0.46489,0.420615 0.37030185,0.37030185 0 0 1 -0.619853,0.183139 0.40250201,0.40250201 0 0 1 0.154963,-0.603754 z"
     fill="#ffffff"
     id="path318"
     style="stroke-width:0.201251" />
  <path
     d="m 1.3081315,6.8692086 c 0.034213,-0.02415 0.201251,-0.225401 0.4206146,-0.142888 0.2193636,0.08251 0.4025021,0.571552 0.3260267,0.629915 A 2.5397877,2.5397877 0 0 1 1.408757,7.5816366 c -0.0161,-0.02415 0.076475,-0.344139 0.042263,-0.452814 A 1.207506,1.207506 0 0 0 1.3081315,6.8692086 Z"
     fill="#ffffff"
     id="path320"
     style="stroke-width:0.201251" />
  <path
     d="m 3.648681,7.6319496 c 0.08855,-0.03824 0.728528,-0.06641 0.847266,0.04226 0.118739,0.108675 0.175089,0.444764 0.442753,0.579603 0.267664,0.134838 0.402502,0.225401 0.402502,0.460864 A 0.45281476,0.45281476 0 0 1 4.9387,9.1332826 c -0.158989,0 -0.585641,-0.185151 -0.92173,-0.185151 A 1.6905085,1.6905085 0 0 1 3.2381287,8.8314056 0.5796029,0.5796029 0 0 1 3.0610278,8.2860156 c 0.066413,-0.100626 0.2596138,-0.511178 0.5876532,-0.654066 z"
     fill="#1d1d1b"
     id="path322"
     style="stroke-width:0.201251" />
  <path
     d="m 3.791569,7.8332006 c 0.136851,-0.05635 0.527278,-0.05836 0.58564,0.04226 0.05836,0.100625 0.134839,0.336089 0.259614,0.402502 0.124776,0.06641 0.52124,0.235463 0.51319,0.376339 -0.0081,0.140876 -0.185151,0.319989 -0.211313,0.301877 A 1.6603208,1.6603208 0 0 0 4.109546,8.7549276 c -0.444765,0.01811 -0.519228,0.07647 -0.646016,0 -0.1267883,-0.07648 -0.2254013,-0.251564 -0.1851511,-0.35219 a 1.7790589,1.7790589 0 0 1 0.5131901,-0.56954 z"
     fill="#ffffff"
     id="path324"
     style="stroke-width:0.201251" />
  <g
     fill="#1d1d1b"
     id="g338"
     transform="matrix(0.20125101,0,0,0.20125101,-1.3322817,-1.0057435)">
    <path
       d="m 20.54,37.26 a 0.56,0.56 0 0 1 1,0 c 0.21,0.46 1.17,5 0.88,5.17 -0.29,0.17 -0.59,0.54 -0.8,0.21 a 32.31,32.31 0 0 1 -1.08,-5.38 z"
       id="path326" />
    <path
       d="m 22.91,37.17 a 0.56,0.56 0 0 1 0.84,0 c 0.12,0.25 0.91,3.8 0.54,3.92 -0.37,0.12 -0.71,0.38 -0.88,-0.08 -0.17,-0.46 -0.75,-3.46 -0.5,-3.84 z"
       id="path328" />
    <path
       d="m 25.41,37.63 c 0.1,-0.28 0.71,-0.12 0.84,0.08 a 18.89,18.89 0 0 1 0.37,3.38 c -0.08,0.17 -0.71,0.21 -0.83,-0.08 a 25.7,25.7 0 0 1 -0.38,-3.38 z"
       id="path330" />
    <path
       d="m 27.79,38.13 a 0.46,0.46 0 0 1 0.71,0 c 0.25,0.25 1.08,3.42 0.58,3.46 -0.5,0.04 -0.75,0.21 -1,-0.38 a 9.2,9.2 0 0 1 -0.29,-3.08 z"
       id="path332" />
    <path
       d="m 30.16,37.71 c 0.18,-0.17 0.75,-0.41 0.84,0.09 0.09,0.5 0.12,1.33 -0.17,1.46 -0.29,0.13 -0.62,0.45 -0.75,0 a 3.32,3.32 0 0 1 0.08,-1.55 z"
       id="path334" />
    <path
       d="m 16,45.21 c 0,-0.31 0.67,-0.37 0.79,0 0.12,0.37 0.5,1.42 0.29,1.5 A 0.71,0.71 0 0 1 16.42,46.8 C 16.16,46.67 16,45.59 16,45.21 Z"
       id="path336" />
  </g>
</svg>

<svg xmlns="http://www.w3.org/2000/svg" width="127.635" height="135.962" viewBox="0 0 10.211 10.877" xmlns:v="https://vecta.io/nano"><path d="M9.014 6.533c-.175 0-.308.201-.352.201-.083.018-.191 0-.318 0a.652.652 0 0 0-.527.183C7.631 7.119 7.539 8 7.79 8.21s.654.117.805.093.201.042.376.05a.859.859 0 0 0 .731-.403c.185-.32.024-.873-.066-1.083a.779.779 0 0 0-.622-.334zM2.399 2.86c.403.127 1.022-.04 1.383-.066s.956.109 1.234.093.646-.386.763-1.006S5.677.471 5.1.27 3.824.395 3.506.512 2.83.604 2.332.848s-.487.513-.495.805.167 1.083.561 1.208zm3.673.312c.085.024 1.912-2.047 1.936-2.113S7.867.84 7.782.84 5.8 2.806 5.82 2.903a.686.686 0 0 0 .252.27zm3.17-1.409c.066.016.519-.572.545-.646s-.127-.093-.201-.101-.604.505-.561.553a.735.735 0 0 0 .217.193zm-7.933 1.92c.068-.119-.368 0-.485.05a1.375 1.375 0 0 0-.588.67A1.769 1.769 0 0 0 0 5.233a.39.39 0 0 0 .36.058c.085-.042.06-.336.185-.747s.696-.745.763-.861zM6.013.614A2.013 2.013 0 0 0 6.49.17c.018-.05-.024-.135-.125-.167s-.561.252-.545.403c.008.074.117.217.193.209zm3.983 1.735c-.36-.477-1.133-.217-1.284-.175s-.564-.04-.755.109c-.604.469-.453 1.3-.427 1.509a.509.509 0 0 0 .437.403c.183.016.729.26 1.022.326s.805.042 1.006-.276.36-1.417 0-1.896zm-1.35 2.926c.026-.083-.016-.066-.093-.083s-.604.439-.67.519c-.026.034.151.235.217.235s.521-.588.545-.672zm-3.739 5.283c-.05-.016-.201.042-.789.034a.982.982 0 0 1-.712-.235c-.066 0-.201.127-.252.201s.125.111.225.169a1.896 1.896 0 0 0 .805.143 1.695 1.695 0 0 0 .773-.111c0-.032 0-.183-.05-.201zm1.542-6.162c-.477-.286-.787-.805-1.425-.855s-1.065.314-1.61.386c-.771.101-1.443.201-1.978.628A2.286 2.286 0 0 0 .63 6.191a1.006 1.006 0 0 0 .336.896c.159.151-.026.453-.05.704a2.292 2.292 0 0 0 .787 1.586c.58.437.898.403 1.409.403s.72.109 1.509.252 1.006.034 1.586-.495.31-1.115.36-1.224.31-.244.545-.511.403-1.141.334-1.745-.527-1.375-.998-1.66z" fill="#1d1d1b"/><g fill="#e6e4da"><path d="M2.926.916a.731.731 0 0 0 .646.352.718.718 0 0 0 .622-.479c.058-.143.032-.252.058-.252s.578-.183.863.185a1.447 1.447 0 0 1 .244 1.258c-.127.336-.429.588-.604.588a7.521 7.521 0 0 0-1.326-.085c-.561.05-.654.093-.763.042a1.298 1.298 0 0 1-.403-.696.9.9 0 0 1 .185-.72 2.588 2.588 0 0 1 .477-.193z"/><path d="M3.188.84c-.01-.04.737-.252.763-.201a.475.475 0 0 1-.32.421.386.386 0 0 1-.443-.219z"/></g><path d="M4.454.757c-.014-.044.125-.068.167-.034s.252.527.201.57-.151.085-.183.026-.177-.537-.185-.561zm.394.024c-.012-.032.091-.034.151.026s.175.334.125.368-.085.058-.125.024A2.194 2.194 0 0 1 4.848.78zm-1.98.94c.227-.131.63-.085.63.292s-.561.437-.704.286a.352.352 0 0 1 .074-.578z" fill="#1d1d1b"/><path d="M3.011 1.864c.097-.058.286.016.286.141s-.201.169-.286.135a.157.157 0 0 1 0-.276z" fill="#fff"/><path d="M4.303 1.621c.252-.157.787 0 .729.36s-.453.427-.67.403-.731-.344-.058-.763z" fill="#1d1d1b"/><path d="M4.403 1.763c.089-.044.403-.042.403.175s-.286.302-.469.252-.177-.31.066-.427z" fill="#fff"/><path d="M8.177 2.577c.07-.068.31-.085.326-.034s.058.403.294.537a.535.535 0 0 0 .519.074c.143-.05.244-.125.227-.159s-.066-.135-.101-.135-.336.219-.537.05-.125-.403-.032-.435.662-.119.805.074.125 1.409.042 1.35-.177-.336-.227-.336-.159.042-.135.101.278.344.227.403-.143.127-.185.093-.133-.445-.217-.437-.201.05-.167.101.133.294.083.302-.427-.117-.604-.133-.437.024-.527-.219-.093-.904.209-1.197z" fill="#e6e4da"/><path d="M8.41 3.273a.366.366 0 0 1 .471.284c0 .201-.36.36-.553.219s-.227-.378.083-.503z" fill="#1d1d1b"/><path d="M8.491 3.454a.121.121 0 0 1 .155.093c0 .07-.119.119-.183.072s-.074-.125.028-.165z" fill="#fff"/><path d="M8.042 7.07c.028-.034.185-.074.177-.034s-.119.227.101.32a.708.708 0 0 1 .284.183s.042.429-.024.429-.119.016-.127-.026 0-.302-.042-.31-.141-.05-.151 0 .026.378-.016.352-.101.026-.175-.093-.101-.729-.026-.821zm1.091-.108c.024-.016.109-.05.151-.016a.805.805 0 0 1 .133.57c-.032.302-.074.368-.133.386s-.05.05-.06.016 0-.294-.05-.302-.159 0-.167.024.042.362-.024.352-.177 0-.185-.05a1.564 1.564 0 0 1-.016-.403c.024 0 .31-.018.368-.201a.628.628 0 0 0-.016-.376z" fill="#e6e4da"/><path d="M8.579 6.962c.278-.034.403.151.376.268s-.175.201-.376.085-.209-.328 0-.352z" fill="#fff"/><path d="M3.347 4.227c.292-.034.628-.201 1.107-.252a1.674 1.674 0 0 1 1.308.336 5.063 5.063 0 0 1 1.006.972 1.89 1.89 0 0 1 .284 1.594c-.159.62-.225.747-.427.898s-.445.376-.453.461.201.731-.201 1.091-.704.477-.914.461-.906-.278-1.61-.286-1.133-.042-1.451-.284a2.343 2.343 0 0 1-.662-1.075c0-.151-.042-.292.016-.318s.646-.125.821-.268.143-.461 0-.68-.252-.394-.485-.437-.553.235-.553.235a.751.751 0 0 1-.111-.553c.06-.286.211-.948.664-1.358s1.165-.485 1.66-.537z" fill="#e6e4da"/><path d="M2.121 4.782c.056-.038.219.058.185.117a3.176 3.176 0 0 0-.403.537c-.074.201-.032.318-.109.352s-.185.125-.201 0a1.075 1.075 0 0 1 .143-.529 1.916 1.916 0 0 1 .384-.477zm2.307-.378c.386-.101.722.117.94.252a1.183 1.183 0 0 0 .487.227c.175.024.302.066.334.201s0 .469-.101.511-.519.05-.72.217-.268.344-.545.403-.57.109-.879-.143-.604-1.383.485-1.668z" fill="#1d1d1b"/><path d="M4.504 4.605a1.119 1.119 0 0 1 .662.167c.225.135.175.161.403.219s.376.083.403.175.074.26-.034.294-.503.026-.696.159-.334.461-.755.419a.68.68 0 0 1-.586-.644.743.743 0 0 1 .604-.789z" fill="#fff"/><path d="M5.828 6.441a.523.523 0 0 1 .731.654c-.185.513-.731.572-.974.286a.63.63 0 0 1 .244-.94z" fill="#1d1d1b"/><path d="M5.901 6.624a.332.332 0 0 1 .465.421.37.37 0 0 1-.62.183.403.403 0 0 1 .155-.604zm-4.593.245c.034-.024.201-.225.421-.143s.403.572.326.63a2.54 2.54 0 0 1-.646.225c-.016-.024.076-.344.042-.453a1.208 1.208 0 0 0-.143-.26z" fill="#fff"/><path d="M3.649 7.632c.089-.038.729-.066.847.042s.175.445.443.58.403.225.403.461a.453.453 0 0 1-.403.419c-.159 0-.586-.185-.922-.185a1.691 1.691 0 0 1-.779-.117.58.58 0 0 1-.177-.545c.066-.101.26-.511.588-.654z" fill="#1d1d1b"/><path d="M3.792 7.833c.137-.056.527-.058.586.042s.135.336.26.403.521.235.513.376-.185.32-.211.302a1.66 1.66 0 0 0-.829-.201c-.445.018-.519.076-.646 0s-.225-.252-.185-.352a1.779 1.779 0 0 1 .513-.57z" fill="#fff"/><g fill="#1d1d1b"><path d="M2.801 6.493c.019-.038.058-.062.101-.062s.081.024.101.062c.042.093.235 1.006.177 1.04s-.119.109-.161.042a6.5 6.5 0 0 1-.217-1.083z"/><path d="M3.278 6.475c.021-.024.052-.038.085-.038s.063.014.085.038c.024.05.183.765.109.789s-.143.076-.177-.016-.151-.696-.101-.773zm.504.092c.02-.056.143-.024.169.016a3.8 3.8 0 0 1 .074.68c-.016.034-.143.042-.167-.016a5.17 5.17 0 0 1-.076-.68zm.478.101c.018-.021.044-.034.071-.034a.09.09 0 0 1 .071.034c.05.05.217.688.117.696s-.151.042-.201-.076a1.85 1.85 0 0 1-.058-.62zm.477-.085c.036-.034.151-.083.169.018s.024.268-.034.294-.125.091-.151 0a.67.67 0 0 1 .016-.312zm-2.849 1.51c0-.062.135-.074.159 0s.101.286.058.302c-.039.028-.088.035-.133.018-.052-.026-.085-.244-.085-.32z"/></g></svg>
